X:679
T:Mrs. Norman McKeigan #1
C:Joe Buchanan's Scottish Tome - Page 209.2
I:209 2
Z:Carl Allison
R:Reel
L:1/8
M:4/4
K:D
D2 DG FAAB | defd g2fe| dcBA BcdA | ((3Bcd) AF EDEF | 
D2 DG FAAB | defd g2fe| dcBA BcdA | ((3Bcd) AF D2 :| 
f | abaf defd | ((3fga) da f2 ef | abaf defd | ((3fga) df e2 ef | 
abaf defd | ((3fga) da g fe | dcBA BcdA | ((3Bcd) AF D2 :|

